!!!OTL: "Geusenlied" WILHELMUS VON NASSAUEN
!!!ARE: Europa, Mitteleuropa, Deutschland
!!!SCT: Z1143
!!!YEM: Copyright 1995, estate of Helmut Schaffrath.
**kern
*ICvox
*Ivox
*M2/4
*k[f#]
*G:
{8d
=1
16g
16f#
16g
16a
8g
8b
=2
4a
8.dd
16cc
=3
4b
8a}
{8dd
=4
4cc
8b
8b
=5
8a
8g
8a
8b
=6
4g
8r}
{8d
=7
16g
16f#
16g
16a
8g
8b
=8
4a
8.dd
16cc
=9
4b
8a}
{8dd
=10
4cc
8b
8b
=11
8a
8g
8a
8b
=12
4g
8r}
{8g
=13
8b
8a
8b
8cc
=14
8.dd
16ee
8dd}
{8cc
=15
8b
8a
8b
8cc
=16
8.dd
16ee
8dd}
{8cc
=17
8cc
8b
8a
8a
=18
8.g
16a
8b}
{8cc
=19
8dd
8dd
16ee
16dd
16cc
16b
=20
4a
8r}
{8d
=21
16g
16f#
16g
16a
8g
8b
=22
4a
8.dd
16cc
=23
8b
8b
8a}
{8dd
=24
4cc
8b
8b
=25
8a
8g
8a
8b
=26
4.g}
==
!!!AGN: Vaterland und Wehr
!!!ONB: ESAC (Essen Associative Code) Database: ZUCCAL
!!!AMT: simple duple
!!!AIN: vox
!!!EED: Helmut Schaffrath
!!!EEV: 1.0
*-
